X: 1
T:The Humours of Ballyloughlin
M:6/8
L:1/8
Q:80
C:Arr. by T. Tully
S:Jig
K:HP
|: e{g}e{A}e{gef}edB|
{gde}dB{G}A{g}A{d}A{e}A|
g{a}fg"flick"a3|  !
ged{gcd}cB{G}B|
e{g}e{A}e{gef}edB|
d{e}d{c}dgdB|  !
{g}A{d}A{e}A{g}A{d}ce|
A{d}A{e}A{gAGAG}A3:| |:
g{a}fg{a}gfg|  !
{a}ged{g}efg|
eaA"flick"a3|
{g}aec{g}A{d}ce|  !
g{a}g{f}gag{a}f|
ged{g}cdB|
{g}A{d}A{e}A{g}A{d}ce|  !
A{d}A{e}A{gAGAG}A3:| |:
{AeA}e2A{gef}e2d|
c{e}c{G}c{gde}dB{G}A|  !
B{e}B{G}B{g}B{d}cA|
B{e}B{G}B{g}Bcd|
e{g}e{A}eaed|  !
c{e}c{G}c{gde}dBe|
A{d}A{e}A{g}A{d}ce|
A{d}A{e}A{gAGAG}A3:| |:  !
g|
{a}fA{d}AgA{d}A|
{g}fA{d}A{gef}ec{d}A|
B{e}B{G}B{g}B{d}cA|  !
B{e}B{G}B{g}Bcd|
{g}eA{d}AfA{d}A|
gA{d}A{g}fdB|  !
{g}A{d}A{e}A{g}A{d}ce|
A{d}A{e}A{gAGAG}A2:|
